remix/Device/battery-share-line.svg

<svg viewBox="0 0 24 24" fill="currentColor" xmlns="http://www.w3.org/2000/svg"><path d="M14 2C14.5523 2 15 2.44772 15 3V4H18C18.5523 4 19 4.44772 19 5V7H17V6H13V4H11V6H7V20H17V17H19V21C19 21.5523 18.5523 22 18 22H6C5.44772 22 5 21.5523 5 21V5C5 4.44772 5.44772 4 6 4H9V3C9 2.44772 9.44772 2 10 2H14ZM15 8L20 12L15 16V13H14C12.9456 13 12 13.95 12 15V18H10V15C10 12.7909 11.7909 11 14 11H15V8Z"/></svg>

<svg viewBox="0 0 24 24" xmlns="http://www.w3.org/2000/svg"><path fill="none" d="M0 0h24v24H0Z"/><path d="M14 2v0c.55 0 1 .44 1 1v1h3v0c.55 0 1 .44 1 1v2h-2V6h-4V4h-2v2H7v14h10v-3h2v4 0c0 .55-.45 1-1 1H6v0c-.56 0-1-.45-1-1V5v0c0-.56.44-1 1-1h3V3v0c0-.56.44-1 1-1h4Zm1 6l5 4 -5 4v-3h-1c-1.06 0-2 .95-2 2v3h-2v-3 0c0-2.21 1.79-4 4-4h1V8Z"/></svg>
